!! 00026] TT[TB
!! Eigene Aufnahme, Guangzhou, 5.5.87
!!!OTL: Wuzhi shan wu tiao xi
!!!ARE: Hainan
!! Ethnic Group: Li
!! II, 388
!!!SCT: C0936
!!!YEM: Copyright 1995, estate of Helmut Schaffrath.
**kern
*ICvox
*Ivox
!! Mixed meters:  3/4; 2/4
*M2/4
*k[]
*C:
{4dd
4cc
4dd
=1
4ee
2g
=2
4dd
4cc
4dd
=3
2.gg}
=4
{4cc
4ee
4dd
=5
2cc
4g
=6
8ee
8dd
8cc
8ee
4dd
=7
2.dd}
=8
{4e
4a
4cc
=9
2g
4e
=10
4g
4a
4cc
=11
2.a}
=12
{4e
4a
4cc
=13
2g
4e
=14
4g
8r
8g
=15
4g
4g
=16
2cc}
==
!!!AGN: Shange, Luo ni diao. Geming lishi minge
!! Die Saengerin Lei Huilan ist Angehoerige der Zhuang Minderheit und
!!    studiert an der Guangzhouer Musikhochschule.
!!    Aufgenommen am 5.5.87 +++ Noch einmal in Cut 17 +++
!!!ONB: ESAC (Essen Associative Code) Database: CHINA
!!!AMT: irregular
!!!AIN: vox
!!!EED: Helmut Schaffrath
!!!EEV: 1.0
*-
